data/playwrite-dk-loopet.svg

<svg width="141.9" height="23.1" viewBox="0 0 141.9 23.1" xmlns="http://www.w3.org/2000/svg"><path transform="translate(0 17.85) scale(.014 -.014)" d="m89-14q-48 0-39 30l269 832q5 14 17 20.5t34 6.5h155q93 0 155-22t93-65.5 31-108.5q0-76-29.5-132.5t-83.5-95-128-62.5-162-35q-37-4-79-6.5t-77-2.5l-107-331q-5-14-15.5-21t-33.5-7zm181 439q24 0 51 1t54.5 3.5 52.5 5.5q92 15 155.5 44.5t97 76 33.5 112.5q0 45-21 73t-65.5 41-116.5 13h-121z"/><path transform="translate(9.8 17.85) scale(.014 -.014)" d="m-147-17q-19 0-25 11.5t-2.5 26 16 26 30.5 11.5q31 0 69 16t80.5 44 86 66.5 87 84 83.5 95.5 73.5 101.5 58.5 102.5 39 98.5 14 88.5q0 14 13 21t30.5 7 31-7 13.5-21q0-43-16.5-94.5t-45.5-107.5-68.5-113.5-86.5-113.5-97.5-106.5-102-94-102-75-96-49.5-83.5-18zm319 1q-43 0-64.5 15.5t-27.5 41.5-1.5 58 14.5 64l182 562q29 89 69.5 129t98.5 40q32 0 56.5-17.5t38-48.5 13.5-73q0-19-13.5-28t-31-9-30.5 9-13 28q0 17-3.5 29.5t-11 19-20.5 6.5q-11 0-22.5-8.5t-23-29.5-23.5-59l-192-598q-4-13-6-26t3-21.5 19-8.5 26 7 22.5 18.5 18.5 22.5q5 9 15.5 12t25.5-7q17-10 17.5-20.5t-4.5-21.5q-10-17-28.5-37.5t-44.5-34.5-59-14z"/><path transform="translate(15.316 17.85) scale(.014 -.014)" d="m180-17q-43 0-74 19.5t-47.5 56.5-16.5 87q0 44 12.5 95t38 100 64 89.5 90.5 64.5 118 24q33 0 65-10t60-27l1 4q7 18 16.5 23.5t27.5 5.5q32 0 40-9.5t2-29.5l-119-361q-4-13-6-26t3-21.5 20-8.5q13 0 25 7t22.5 18.5 18.5 22.5q6 9 16.5 12t25.5-7q16-10 17-20.5t-5-21.5q-9-17-27.5-37.5t-44.5-34.5-59-14q-31 0-50 9t-28.5 24-12.5 34-1 39q0 3 0 5.5t1 4.5q-35-44-70-70t-66.5-36.5-56.5-10.5zm-48 174q0-31 8.5-51.5t26-31.5 41.5-11q34 0 69 22.5t70 65.5 68 102l53 162q-27 15-52 20t-50 5q-50 0-89-19t-66.5-51-45-70-25.5-75.5-8-67.5z"/><path transform="translate(24.024 17.85) scale(.014 -.014)" d="m404 9q20 10 38.5 19t36.5 17 34.5 14.5 30.5 12.5q16 5 24-2.5t10-21.5-2.5-27-15.5-18q-20-9-40.5-18.5t-41-19-41.5-20-42-20.5zm-255-403q-38 0-68 14.5t-46 40.5-16 58q0 38 17 68t48 55.5 73.5 49.5 93.5 48q25 12 49.5 24t49.5 24l36 111q-23-28-48-49.5t-50.5-36-51.5-22-52-7.5q-54 0-86 24t-38.5 68.5 12.5 104.5l99 302q7 20 16.5 26t28.5 6q31 0 39.5-9.5t1.5-29.5l-99-301q-12-38-11-63t17.5-37.5 50.5-12.5q27 0 56.5 15t59.5 43 58.5 66 51.5 85l68 212q7 20 16.5 26t28.5 6q31 0 39.5-9.5t1.5-29.5l-196-603q-23-73-48.5-124t-56-82.5-66-46-79.5-14.5zm13 78q23 0 43.5 11t39 33.5 36 59 33.5 87.5l6 19q-14-7-28-14t-28-14q-36-17-65-33t-49.5-32-31-32.5-10.5-36.5q0-16 6.5-26.5t18.5-16 29-5.5z"/><path transform="translate(32.984 17.85) scale(.014 -.014)" d="m146-15q-21 0-29 8.5t-9 29.5l-12 453q0 14 8 26.5t36 12.5q22 0 31.5-8.5t9.5-31.5l3-354 240 363q12 18 25 24.5t32 6.5q17 0 29.5-10t13.5-36l11-346 230 365q11 17 23 22t26 5q28 0 38-14t-2-33l-297-457q-7-11-22-18.5t-37-7.5-30.5 8.5-8.5 29.5l-11 355-243-367q-7-10-20-18t-35-8z"/><path transform="translate(44.24 17.85) scale(.014 -.014)" d="m56-15q-16 0-30 7t-7 26l150 465q7 20 16.5 26t28.5 6q31 0 39.5-9.5t1.5-29.5l-25-78q24 29 49.5 51.5t51 38 50.5 23.5 49 8q25 0 45-8.5t32-20.5q11-9 12-20t-10-29q-11-17-21.5-21t-21.5 3q-17 10-29.5 13.5t-26.5 3.5q-28 0-58.5-15t-62-42.5-60.5-65.5-53-85l-72-221q-4-13-14.5-19.5t-33.5-6.5z"/><path transform="translate(50.596 17.85) scale(.014 -.014)" d="m142-16q-64 0-85.5 44.5t4.5 123.5l107 331q7 20 16.5 26t28.5 6q31 0 39.5-9.5t1.5-29.5l-116-357q-9-29-4.5-44.5t22.5-15.5q13 0 25 7t22 18.5 19 22.5q6 9 16.5 12t25.5-7q16-10 17-20.5t-5-21.5q-13-22-32.5-42t-45-32-56.5-12zm133 685q-20 0-34 13t-14 38q0 27 17.5 51t54.5 24q21 0 35-12.5t14-38.5q0-27-17.5-51t-55.5-24z"/><path transform="translate(54.796 17.85) scale(.014 -.014)" d="m167-16q-54 0-76.5 25t-21 67 17.5 95l81 249h-79q-11 0-15 10t1 30q6 20 16 30t21 10h82l64 198q6 20 15.5 26t29.5 6q31 0 39.5-9.5t1.5-29.5l-62-191h126q11 0 15.5-9.5t-1.5-30.5q-5-19-15-29.5t-21-10.5h-129l-95-291q-11-35-5.5-52.5t26.5-17.5q30 0 54 20t41 41q6 9 16.5 12t25.5-7q17-10 18-20t-5-21q-12-20-34.5-44t-55-40-76.5-16z"/><path transform="translate(60.228 17.85) scale(.014 -.014)" d="m248-18q-34 0-65 11.5t-56 33-43.5 51.5-28 66.5-9.5 77.5q0 39 9 80t27.5 80 46.5 69.5 66 49 86 18.5q39 0 66.5-15.5t41.5-42 14-60.5q0-57-27.5-110.5t-72-99.5-96.5-82q-54-38-114-66.5t-119-44-111-15.5q-14 0-20 11.5t-3.5 26 14 26 32.5 11.5q44 0 93 15t97.5 41 90.5 58q36 27 69.5 61.5t55 72.5 21.5 76q0 28-12 42.5t-39 14.5q-31 0-54.5-21.5t-40-54.5-24.5-69.5-8-66.5q0-37 10-67.5t28-52.5 41.5-33.5 49.5-11.5 50.5 9.5 47.5 26.5 45 36q14 13 27 10.5t24-13.5q13-12 15-25.5t-11-26.5q-33-34-68-56t-71.5-31.5-74.5-9.5z"/><path transform="translate(70.644 17.85) scale(.014 -.014)" d="m88 0q-45 0-35 28l267 820q5 14 18 20.5t35 6.5h153q89 0 154.5-22t109-60.5 64.5-88.5 21-106q0-105-31.5-196.5t-88-165-132-126.5-164.5-81.5-184-28.5zm71 85h116q75 0 147.5 22.5t136.5 66 113 106.5 76.5 143 27.5 175q0 45-18 81t-51.5 60.5-79.5 37.5-102 13h-136z"/><path transform="translate(82.824 17.85) scale(.014 -.014)" d="m83-14q-22 0-30.5 7t-4.5 21l276 849q9 27 53 27t35-27l-114-348 472 361q19 14 31 11.5t24-19.5q13-18 11.5-28.5t-22.5-26.5l-476-359q42-82 83.5-151.5t86-131.5 95.5-125q14-17 9.5-29t-24.5-27q-15-10-28.5-7t-21.5 13q-41 50-78.5 103.5t-71 108.5-63 111-55.5 111l-135-416q-4-14-17-21t-35-7z"/><path transform="translate(96.712 17.85) scale(.014 -.014)" d="m91 0q-45 0-32 40l265 823q5 14 15 20.5t32 6.5q23 0 34-7t5-23l-251-780h364q11 0 15-9.5t-2-30.5q-5-19-15-29.5t-21-10.5z"/><path transform="translate(105.46 17.85) scale(.014 -.014)" d="m241-19q-62 0-105 25t-64.5 69.5-21.5 100.5q0 53 19 112.5t56.5 112 94 85.5 131.5 33q62 0 104.5-23.5t64-66 21.5-98.5q0-40-11.5-87.5t-35-94-59.5-84.5-84.5-61-109.5-23zm10 80q49 0 86 26t62 66.5 38 85 13 82.5q0 39-13 65t-37 39.5-57 13.5q-50 0-88-25.5t-63.5-65.5-38.5-84-13-81q0-39 13.5-66.5t38.5-41.5 59-14z"/><path transform="translate(113.69 17.85) scale(.014 -.014)" d="m241-19q-62 0-105 25t-64.5 69.5-21.5 100.5q0 53 19 112.5t56.5 112 94 85.5 131.5 33q62 0 104.5-23.5t64-66 21.5-98.5q0-40-11.5-87.5t-35-94-59.5-84.5-84.5-61-109.5-23zm10 80q49 0 86 26t62 66.5 38 85 13 82.5q0 39-13 65t-37 39.5-57 13.5q-50 0-88-25.5t-63.5-65.5-38.5-84-13-81q0-39 13.5-66.5t38.5-41.5 59-14z"/><path transform="translate(121.93 17.85) scale(.014 -.014)" d="m-58-390q-16 0-30 7t-7 26l271 840q7 20 16.5 26t28.5 6q31 0 39.5-9.5t1.5-29.5l-18-57q32 38 63 59.5t59.5 31 53.5 9.5q64 0 100.5-44t36.5-120q0-46-13-97t-39-100-64.5-88.5-89.5-63-115-23.5q-32 0-63 10t-59 26l-124-383q-4-13-14.5-19.5t-33.5-6.5zm193 475q28-13 51-18.5t48-5.5q49 0 87 19.5t65.5 51 45 69 26 75.5 8.5 69q0 30-8.5 51t-25 32-41.5 11q-31 0-64-19.5t-66-57-65-91.5z"/><path transform="translate(130.26 17.85) scale(.014 -.014)" d="m248-18q-34 0-65 11.5t-56 33-43.5 51.5-28 66.5-9.5 77.5q0 39 9 80t27.5 80 46.5 69.5 66 49 86 18.5q39 0 66.5-15.5t41.5-42 14-60.5q0-57-27.5-110.5t-72-99.5-96.5-82q-54-38-114-66.5t-119-44-111-15.5q-14 0-20 11.5t-3.5 26 14 26 32.5 11.5q44 0 93 15t97.5 41 90.5 58q36 27 69.5 61.5t55 72.5 21.5 76q0 28-12 42.5t-39 14.5q-31 0-54.5-21.5t-40-54.5-24.5-69.5-8-66.5q0-37 10-67.5t28-52.5 41.5-33.5 49.5-11.5 50.5 9.5 47.5 26.5 45 36q14 13 27 10.5t24-13.5q13-12 15-25.5t-11-26.5q-33-34-68-56t-71.5-31.5-74.5-9.5z"/><path transform="translate(136.47 17.85) scale(.014 -.014)" d="m167-16q-54 0-76.5 25t-21 67 17.5 95l81 249h-79q-11 0-15 10t1 30q6 20 16 30t21 10h82l64 198q6 20 15.5 26t29.5 6q31 0 39.5-9.5t1.5-29.5l-62-191h126q11 0 15.5-9.5t-1.5-30.5q-5-19-15-29.5t-21-10.5h-129l-95-291q-11-35-5.5-52.5t26.5-17.5q30 0 54 20t41 41q6 9 16.5 12t25.5-7q17-10 18-20t-5-21q-12-20-34.5-44t-55-40-76.5-16z"/></svg>

<?xml version="1.0" encoding="utf-8" ?>
<svg baseProfile="tiny" height="100%" version="1.2" width="100%" xmlns="http://www.w3.org/2000/svg" xmlns:ev="http://www.w3.org/2001/xml-events" xmlns:xlink="http://www.w3.org/1999/xlink"><defs /><g><path d="M89 -14Q41 -14 50 16L319 848Q324 862 336.0 868.5Q348 875 370 875H525Q618 875 680.0 853.0Q742 831 773.0 787.5Q804 744 804 679Q804 603 774.5 546.5Q745 490 691.0 451.5Q637 413 563.0 389.0Q489 365 401 354Q364 350 322.0 347.5Q280 345 245 345L138 14Q133 0 122.5 -7.0Q112 -14 89 -14ZM270 425Q294 425 321.0 426.0Q348 427 375.5 429.5Q403 432 428 435Q520 450 583.5 479.5Q647 509 680.5 555.5Q714 602 714 668Q714 713 693.0 741.0Q672 769 627.5 782.0Q583 795 511 795H390Z" transform="translate(0.0, 72) scale(0.072, -0.072)" /><path d="M-147 -17Q-166 -17 -172.0 -5.5Q-178 6 -174.5 20.5Q-171 35 -158.5 46.5Q-146 58 -128 58Q-97 58 -59.0 74.0Q-21 90 21.5 118.0Q64 146 107.5 184.5Q151 223 194.5 268.5Q238 314 278.0 364.0Q318 414 351.5 465.5Q385 517 410.0 568.0Q435 619 449.0 666.5Q463 714 463 755Q463 769 476.0 776.0Q489 783 506.5 783.0Q524 783 537.5 776.0Q551 769 551 755Q551 712 534.5 660.5Q518 609 489.0 553.0Q460 497 420.5 439.5Q381 382 334.0 326.0Q287 270 236.5 219.5Q186 169 134.5 125.5Q83 82 32.5 50.5Q-18 19 -63.5 1.0Q-109 -17 -147 -17ZM172 -16Q129 -16 107.5 -0.5Q86 15 80.0 41.0Q74 67 78.5 99.0Q83 131 93 163L275 725Q304 814 344.5 854.0Q385 894 443 894Q475 894 499.5 876.5Q524 859 537.5 828.0Q551 797 551 755Q551 736 537.5 727.0Q524 718 506.5 718.0Q489 718 476.0 727.0Q463 736 463 755Q463 772 459.5 784.5Q456 797 448.5 803.5Q441 810 428 810Q417 810 405.5 801.5Q394 793 382.5 772.0Q371 751 359 713L167 115Q163 102 161.0 89.0Q159 76 164.0 67.5Q169 59 183 59Q197 59 209.0 66.0Q221 73 231.5 84.5Q242 96 250 107Q255 116 265.5 119.0Q276 122 291 112Q308 102 308.5 91.5Q309 81 304 70Q294 53 275.5 32.5Q257 12 231.0 -2.0Q205 -16 172 -16Z" transform="translate(50.4, 72) scale(0.072, -0.072)" /><path d="M180 -17Q137 -17 106.0 2.5Q75 22 58.5 59.0Q42 96 42 146Q42 190 54.5 241.0Q67 292 92.5 341.0Q118 390 156.5 430.5Q195 471 247.0 495.0Q299 519 365 519Q398 519 430.0 509.0Q462 499 490 482L491 486Q498 504 507.5 509.5Q517 515 535 515Q567 515 575.0 505.5Q583 496 577 476L458 115Q454 102 452.0 89.0Q450 76 455.0 67.5Q460 59 475 59Q488 59 500.0 66.0Q512 73 522.5 84.5Q533 96 541 107Q547 116 557.5 119.0Q568 122 583 112Q599 102 600.0 91.5Q601 81 595 70Q586 53 567.5 32.5Q549 12 523.0 -2.0Q497 -16 464 -16Q433 -16 414.0 -7.0Q395 2 385.5 17.0Q376 32 373.0 51.0Q370 70 372 90Q372 93 372.0 95.5Q372 98 373 100Q338 56 303.0 30.0Q268 4 236.5 -6.5Q205 -17 180 -17ZM132 157Q132 126 140.5 105.5Q149 85 166.5 74.0Q184 63 208 63Q242 63 277.0 85.5Q312 108 347.0 151.0Q382 194 415 253L468 415Q441 430 416.0 435.0Q391 440 366 440Q316 440 277.0 421.0Q238 402 210.5 370.0Q183 338 165.5 300.0Q148 262 140.0 224.5Q132 187 132 157Z" transform="translate(78.768, 72) scale(0.072, -0.072)" /><path d="M404 9Q424 19 442.5 28.0Q461 37 479.0 45.0Q497 53 513.5 59.5Q530 66 544 72Q560 77 568.0 69.5Q576 62 578.0 48.0Q580 34 575.5 21.0Q571 8 560 3Q540 -6 519.5 -15.5Q499 -25 478.5 -34.5Q458 -44 437.0 -54.5Q416 -65 395 -75ZM149 -394Q111 -394 81.0 -379.5Q51 -365 35.0 -339.0Q19 -313 19 -281Q19 -243 36.0 -213.0Q53 -183 84.0 -157.5Q115 -132 157.5 -108.0Q200 -84 251 -60Q276 -48 300.5 -36.0Q325 -24 350 -12L386 99Q363 71 338.0 49.5Q313 28 287.5 13.5Q262 -1 236.0 -8.5Q210 -16 184 -16Q130 -16 98.0 8.0Q66 32 59.5 76.5Q53 121 72 181L171 483Q178 503 187.5 509.0Q197 515 216 515Q247 515 255.5 505.5Q264 496 257 476L158 175Q146 137 147.0 112.0Q148 87 164.5 74.5Q181 62 215 62Q242 62 271.5 77.0Q301 92 331.0 120.0Q361 148 389.5 186.0Q418 224 441 271L509 483Q516 503 525.5 509.0Q535 515 554 515Q585 515 593.5 505.5Q602 496 595 476L399 -127Q376 -200 350.5 -251.0Q325 -302 294.5 -333.5Q264 -365 228.5 -379.5Q193 -394 149 -394ZM162 -316Q185 -316 205.5 -305.0Q226 -294 244.5 -271.5Q263 -249 280.5 -212.5Q298 -176 314 -125L320 -106Q306 -113 292.0 -120.0Q278 -127 264 -134Q228 -151 199.0 -167.0Q170 -183 149.5 -199.0Q129 -215 118.5 -231.5Q108 -248 108 -268Q108 -284 114.5 -294.5Q121 -305 133.0 -310.5Q145 -316 162 -316Z" transform="translate(123.55199999999999, 72) scale(0.072, -0.072)" /><path d="M146 -15Q125 -15 117.0 -6.5Q109 2 108 23L96 476Q96 490 104.0 502.5Q112 515 140 515Q162 515 171.5 506.5Q181 498 181 475L184 121L424 484Q436 502 449.0 508.5Q462 515 481 515Q498 515 510.5 505.0Q523 495 524 469L535 123L765 488Q776 505 788.0 510.0Q800 515 814 515Q842 515 852.0 501.0Q862 487 850 468L553 11Q546 0 531.0 -7.5Q516 -15 494 -15Q472 -15 463.5 -6.5Q455 2 455 23L444 378L201 11Q194 1 181.0 -7.0Q168 -15 146 -15Z" transform="translate(169.632, 72) scale(0.072, -0.072)" /><path d="M56 -15Q40 -15 26.0 -8.0Q12 -1 19 18L169 483Q176 503 185.5 509.0Q195 515 214 515Q245 515 253.5 505.5Q262 496 255 476L230 398Q254 427 279.5 449.5Q305 472 330.5 487.5Q356 503 381.0 511.0Q406 519 430 519Q455 519 475.0 510.5Q495 502 507 490Q518 481 519.0 470.0Q520 459 509 441Q498 424 487.5 420.0Q477 416 466 423Q449 433 436.5 436.5Q424 440 410 440Q382 440 351.5 425.0Q321 410 289.5 382.5Q258 355 229.0 317.0Q200 279 176 232L104 11Q100 -2 89.5 -8.5Q79 -15 56 -15Z" transform="translate(227.52, 72) scale(0.072, -0.072)" /><path d="M142 -16Q78 -16 56.5 28.5Q35 73 61 152L168 483Q175 503 184.5 509.0Q194 515 213 515Q244 515 252.5 505.5Q261 496 254 476L138 119Q129 90 133.5 74.5Q138 59 156 59Q169 59 181.0 66.0Q193 73 203.0 84.5Q213 96 222 107Q228 116 238.5 119.0Q249 122 264 112Q280 102 281.0 91.5Q282 81 276 70Q263 48 243.5 28.0Q224 8 198.5 -4.0Q173 -16 142 -16ZM275 669Q255 669 241.0 682.0Q227 695 227 720Q227 747 244.5 771.0Q262 795 299 795Q320 795 334.0 782.5Q348 770 348 744Q348 717 330.5 693.0Q313 669 275 669Z" transform="translate(260.208, 72) scale(0.072, -0.072)" /><path d="M167 -16Q113 -16 90.5 9.0Q68 34 69.5 76.0Q71 118 87 171L168 420H89Q78 420 74.0 430.0Q70 440 75 460Q81 480 91.0 490.0Q101 500 112 500H194L258 698Q264 718 273.5 724.0Q283 730 303 730Q334 730 342.5 720.5Q351 711 344 691L282 500H408Q419 500 423.5 490.5Q428 481 422 460Q417 441 407.0 430.5Q397 420 386 420H257L162 129Q151 94 156.5 76.5Q162 59 183 59Q213 59 237.0 79.0Q261 99 278 120Q284 129 294.5 132.0Q305 135 320 125Q337 115 338.0 105.0Q339 95 333 84Q321 64 298.5 40.0Q276 16 243.5 0.0Q211 -16 167 -16Z" transform="translate(281.80800000000005, 72) scale(0.072, -0.072)" /><path d="M248 -18Q214 -18 183.0 -6.5Q152 5 127.0 26.5Q102 48 83.5 78.0Q65 108 55.5 144.5Q46 181 46 222Q46 261 55.0 302.0Q64 343 82.5 382.0Q101 421 129.0 451.5Q157 482 195.0 500.5Q233 519 281 519Q320 519 347.5 503.5Q375 488 389.0 461.5Q403 435 403 401Q403 344 375.5 290.5Q348 237 303.5 191.0Q259 145 207 109Q153 71 93.0 42.5Q33 14 -26.0 -1.5Q-85 -17 -137 -17Q-151 -17 -157.0 -5.5Q-163 6 -160.5 20.5Q-158 35 -146.5 46.5Q-135 58 -114 58Q-70 58 -21.0 73.0Q28 88 76.5 114.0Q125 140 167 172Q203 199 236.5 233.5Q270 268 291.5 306.0Q313 344 313 382Q313 410 301.0 424.5Q289 439 262 439Q231 439 207.5 417.5Q184 396 167.5 363.0Q151 330 143.0 293.5Q135 257 135 227Q135 190 145.0 159.5Q155 129 173.0 107.0Q191 85 214.5 73.5Q238 62 264 62Q290 62 314.5 71.5Q339 81 362.0 98.0Q385 115 407 134Q421 147 434.0 144.5Q447 142 458 131Q471 119 473.0 105.5Q475 92 462 79Q429 45 394.0 23.0Q359 1 322.5 -8.5Q286 -18 248 -18Z" transform="translate(309.744, 72) scale(0.072, -0.072)" /><path d="M88 0Q43 0 53 28L320 848Q325 862 338.0 868.5Q351 875 373 875H526Q615 875 680.5 853.0Q746 831 789.5 792.5Q833 754 854.0 704.0Q875 654 875 598Q875 493 843.5 401.5Q812 310 755.5 236.5Q699 163 623.5 110.0Q548 57 459.0 28.5Q370 0 275 0ZM159 85H275Q350 85 422.5 107.5Q495 130 559.0 173.5Q623 217 672.0 280.0Q721 343 748.5 423.0Q776 503 776 598Q776 643 758.0 679.0Q740 715 706.5 739.5Q673 764 627.0 777.0Q581 790 525 790H389Z" transform="translate(363.31200000000007, 72) scale(0.072, -0.072)" /><path d="M83 -14Q61 -14 52.5 -7.0Q44 0 48 14L324 863Q333 890 377 890Q421 890 412 863L298 515L770 876Q789 890 801.0 887.5Q813 885 825 868Q838 850 836.5 839.5Q835 829 814 813L338 454Q380 372 421.5 302.5Q463 233 507.5 171.0Q552 109 603 46Q617 29 612.5 17.0Q608 5 588 -10Q573 -20 559.5 -17.0Q546 -14 538 -4Q497 46 459.5 99.5Q422 153 388.5 208.0Q355 263 325.5 319.0Q296 375 270 430L135 14Q131 0 118.0 -7.0Q105 -14 83 -14Z" transform="translate(425.95200000000006, 72) scale(0.072, -0.072)" /><path d="M91 0Q46 0 59 40L324 863Q329 877 339.0 883.5Q349 890 371 890Q394 890 405.0 883.0Q416 876 410 860L159 80H523Q534 80 538.0 70.5Q542 61 536 40Q531 21 521.0 10.5Q511 0 500 0Z" transform="translate(497.3760000000001, 72) scale(0.072, -0.072)" /><path d="M241 -19Q179 -19 136.0 6.0Q93 31 71.5 75.5Q50 120 50 176Q50 229 69.0 288.5Q88 348 125.5 400.5Q163 453 219.5 486.0Q276 519 351 519Q413 519 455.5 495.5Q498 472 519.5 429.5Q541 387 541 331Q541 291 529.5 243.5Q518 196 494.5 149.5Q471 103 435.0 65.0Q399 27 350.5 4.0Q302 -19 241 -19ZM251 61Q300 61 337.0 87.0Q374 113 399.0 153.5Q424 194 437.0 238.5Q450 283 450 321Q450 360 437.0 386.0Q424 412 400.0 425.5Q376 439 343 439Q293 439 255.0 413.5Q217 388 191.5 348.0Q166 308 153.0 264.0Q140 220 140 183Q140 144 153.5 116.5Q167 89 192.0 75.0Q217 61 251 61Z" transform="translate(542.3760000000001, 72) scale(0.072, -0.072)" /><path d="M241 -19Q179 -19 136.0 6.0Q93 31 71.5 75.5Q50 120 50 176Q50 229 69.0 288.5Q88 348 125.5 400.5Q163 453 219.5 486.0Q276 519 351 519Q413 519 455.5 495.5Q498 472 519.5 429.5Q541 387 541 331Q541 291 529.5 243.5Q518 196 494.5 149.5Q471 103 435.0 65.0Q399 27 350.5 4.0Q302 -19 241 -19ZM251 61Q300 61 337.0 87.0Q374 113 399.0 153.5Q424 194 437.0 238.5Q450 283 450 321Q450 360 437.0 386.0Q424 412 400.0 425.5Q376 439 343 439Q293 439 255.0 413.5Q217 388 191.5 348.0Q166 308 153.0 264.0Q140 220 140 183Q140 144 153.5 116.5Q167 89 192.0 75.0Q217 61 251 61Z" transform="translate(584.7120000000001, 72) scale(0.072, -0.072)" /><path d="M-58 -390Q-74 -390 -88.0 -383.0Q-102 -376 -95 -357L176 483Q183 503 192.5 509.0Q202 515 221 515Q252 515 260.5 505.5Q269 496 262 476L244 419Q276 457 307.0 478.5Q338 500 366.5 509.5Q395 519 420 519Q484 519 520.5 475.0Q557 431 557 355Q557 309 544.0 258.0Q531 207 505.0 158.0Q479 109 440.5 69.5Q402 30 351.0 6.5Q300 -17 236 -17Q204 -17 173.0 -7.0Q142 3 114 19L-10 -364Q-14 -377 -24.5 -383.5Q-35 -390 -58 -390ZM135 85Q163 72 186.0 66.5Q209 61 234 61Q283 61 321.0 80.5Q359 100 386.5 131.5Q414 163 431.5 200.5Q449 238 457.5 276.0Q466 314 466 345Q466 375 457.5 396.0Q449 417 432.5 428.0Q416 439 391 439Q360 439 327.0 419.5Q294 400 261.0 362.5Q228 325 196 271Z" transform="translate(627.0480000000001, 72) scale(0.072, -0.072)" /><path d="M248 -18Q214 -18 183.0 -6.5Q152 5 127.0 26.5Q102 48 83.5 78.0Q65 108 55.5 144.5Q46 181 46 222Q46 261 55.0 302.0Q64 343 82.5 382.0Q101 421 129.0 451.5Q157 482 195.0 500.5Q233 519 281 519Q320 519 347.5 503.5Q375 488 389.0 461.5Q403 435 403 401Q403 344 375.5 290.5Q348 237 303.5 191.0Q259 145 207 109Q153 71 93.0 42.5Q33 14 -26.0 -1.5Q-85 -17 -137 -17Q-151 -17 -157.0 -5.5Q-163 6 -160.5 20.5Q-158 35 -146.5 46.5Q-135 58 -114 58Q-70 58 -21.0 73.0Q28 88 76.5 114.0Q125 140 167 172Q203 199 236.5 233.5Q270 268 291.5 306.0Q313 344 313 382Q313 410 301.0 424.5Q289 439 262 439Q231 439 207.5 417.5Q184 396 167.5 363.0Q151 330 143.0 293.5Q135 257 135 227Q135 190 145.0 159.5Q155 129 173.0 107.0Q191 85 214.5 73.5Q238 62 264 62Q290 62 314.5 71.5Q339 81 362.0 98.0Q385 115 407 134Q421 147 434.0 144.5Q447 142 458 131Q471 119 473.0 105.5Q475 92 462 79Q429 45 394.0 23.0Q359 1 322.5 -8.5Q286 -18 248 -18Z" transform="translate(669.8880000000001, 72) scale(0.072, -0.072)" /><path d="M167 -16Q113 -16 90.5 9.0Q68 34 69.5 76.0Q71 118 87 171L168 420H89Q78 420 74.0 430.0Q70 440 75 460Q81 480 91.0 490.0Q101 500 112 500H194L258 698Q264 718 273.5 724.0Q283 730 303 730Q334 730 342.5 720.5Q351 711 344 691L282 500H408Q419 500 423.5 490.5Q428 481 422 460Q417 441 407.0 430.5Q397 420 386 420H257L162 129Q151 94 156.5 76.5Q162 59 183 59Q213 59 237.0 79.0Q261 99 278 120Q284 129 294.5 132.0Q305 135 320 125Q337 115 338.0 105.0Q339 95 333 84Q321 64 298.5 40.0Q276 16 243.5 0.0Q211 -16 167 -16Z" transform="translate(701.8560000000001, 72) scale(0.072, -0.072)" /></g></svg>
